public/tutorial-assets/T0008L06-livepeer-logo.svg

<svg viewBox="0 0 123 34" fill="none" xmlns="http://www.w3.org/2000/svg" class="css-1g5lknp"><path class="w-animate css-fvm6oo" fill-rule="evenodd" clip-rule="evenodd" d="M123 9.87911L122.265 7.54623L115.451 9.92771L114.863 7.44903H112.363V26.5495H115.598V12.9896L123 9.87911Z" style="fill: rgb(19, 20, 24);"></path><path class="w-animate css-fvm6oo" fill-rule="evenodd" clip-rule="evenodd" d="M94.304 10.8572C95.6809 8.57488 98.287 6.87527 101.631 6.87527C104.139 6.87527 106.105 7.79792 107.581 9.25473C109.154 10.9543 110.088 13.4309 110.039 16.0046L109.99 17.947H96.2709C96.2709 19.6952 96.9594 21.5891 98.1395 22.7545C99.0246 23.6286 100.205 24.1142 101.68 24.1142C103.204 24.1142 104.483 23.6772 105.27 22.8516C105.81 22.3175 106.155 21.7833 106.401 20.7635H109.597C109.302 22.6574 108.171 24.4056 106.597 25.4739C105.22 26.3966 103.499 26.9307 101.68 26.9307C98.9263 26.9307 96.7135 25.8138 95.2383 24.0657C93.6156 22.2204 92.8289 19.6952 92.8289 16.9758C92.8289 14.6935 93.2222 12.654 94.304 10.8572ZM101.63 9.59395C98.139 9.59395 96.4179 12.4105 96.3196 15.227H106.646C106.646 13.8187 106.252 12.3619 105.466 11.3421C104.63 10.2738 103.351 9.59395 101.63 9.59395Z" style="fill: rgb(19, 20, 24);"></path><path class="w-animate css-fvm6oo" fill-rule="evenodd" clip-rule="evenodd" d="M74.9661 10.8565C76.343 8.57416 78.9491 6.87455 82.2929 6.87455C84.8007 6.87455 86.7676 7.79719 88.2428 9.25401C89.8163 10.9536 90.7506 13.4302 90.7014 16.0039L90.6522 17.9463H76.9331C76.9331 19.6945 77.6215 21.5884 78.8016 22.7538C79.6867 23.6279 80.8669 24.1135 82.342 24.1135C83.8664 24.1135 85.1449 23.6765 85.9317 22.8509C86.4726 22.3168 86.8168 21.7826 87.0626 20.7628H90.2588C89.9638 22.6567 88.8328 24.4049 87.2593 25.4732C85.8825 26.3958 84.1614 26.93 82.342 26.93C79.5884 26.93 77.3756 25.8131 75.9004 24.0649C74.2777 22.2196 73.491 19.6945 73.491 16.9751C73.491 14.6928 73.8843 12.6532 74.9661 10.8565ZM82.2919 9.59396C78.8006 9.59396 77.0795 12.4105 76.9812 15.227H87.3075C87.3075 13.8187 86.9141 12.3619 86.1273 11.3421C85.2914 10.2738 84.0129 9.59396 82.2919 9.59396Z" style="fill: rgb(19, 20, 24);"></path><path class="w-animate css-fvm6oo" fill-rule="evenodd" clip-rule="evenodd" d="M57.2321 10.0231C58.3569 8.134 60.8511 7.06837 63.0029 7.06837C65.3503 7.06837 67.2087 7.84338 68.3824 9.10277C70.2408 10.9434 71.17 13.8497 71.17 16.9982C71.17 20.292 70.1919 23.2951 68.2357 25.1358C66.9642 26.2983 65.2036 27.0733 62.954 27.0733C60.9 27.0733 58.4058 26.1046 57.3788 24.3608V34H54.1511V7.55275H56.6453L57.2321 10.0231ZM59.3364 23.152C60.1189 23.8301 61.0481 24.4114 62.4663 24.4114C66.7699 24.4114 67.8947 20.5848 67.8947 17.0972C67.8947 13.6097 66.7699 9.78306 62.4663 9.78306C61.0481 9.78306 60.1189 10.3643 59.3364 11.0425C57.7225 12.3987 57.1846 14.7238 57.1846 17.0972C57.1846 19.4707 57.7225 21.7473 59.3364 23.152Z" style="fill: rgb(19, 20, 24);"></path><path class="w-animate css-fvm6oo" fill-rule="evenodd" clip-rule="evenodd" d="M36.0904 10.8565C37.4672 8.57416 40.0734 6.87455 43.4171 6.87455C45.9249 6.87455 47.8919 7.79719 49.367 9.25401C50.9406 10.9536 51.8748 13.4302 51.8257 16.0039L51.7765 17.9463H38.0573C38.0573 19.6945 38.7457 21.5884 39.9259 22.7538C40.811 23.6279 41.9911 24.1135 43.4663 24.1135C44.9907 24.1135 46.2692 23.6765 47.0559 22.8509C47.5968 22.3168 47.941 21.7826 48.1869 20.7628H51.3831C51.0881 22.6567 49.9571 24.4049 48.3836 25.4732C47.0067 26.3958 45.2857 26.93 43.4663 26.93C40.7126 26.93 38.4999 25.8131 37.0247 24.0649C35.402 22.2196 34.6152 19.6945 34.6152 16.9751C34.6152 14.6928 35.0086 12.6532 36.0904 10.8565ZM43.4164 9.59396C39.9251 9.59396 38.2041 12.4105 38.1057 15.227H48.432C48.432 13.8187 48.0386 12.3619 47.2518 11.3421C46.4159 10.2738 45.1374 9.59396 43.4164 9.59396Z" style="fill: rgb(19, 20, 24);"></path><path class="w-animate css-fvm6oo" d="M6.57544 7.44903H9.86318V26.5495H6.57544V7.44903Z" style="fill: rgb(19, 20, 24);"></path><path class="w-animate css-fvm6oo" d="M6.57573 0H10.2503V3.62908H6.57573V0Z" style="fill: rgb(19, 20, 24);"></path><path class="w-animate css-fvm6oo" d="M0 0H3.28774V26.5496H0V0Z" style="fill: rgb(19, 20, 24);"></path><path fill-rule="evenodd" clip-rule="evenodd" d="M16.8261 7.44915H13.1516V11.0782H16.8261V7.44915ZM25.3333 7.44915H21.6588V11.0782H25.3333V7.44915ZM25.3332 23.1123H21.6587V26.7414H25.3332V23.1123ZM29.9775 7.44915H33.652V11.0782H29.9775V7.44915ZM25.917 15.2807H29.5915V18.9098H25.917V15.2807ZM21.0796 15.2807H17.405V18.9098H21.0796V15.2807Z" fill="url(#-logo-svg-paint0_linear)"></path><defs><linearGradient id="-logo-svg-paint0_linear" x1="13.1519" y1="17.0847" x2="33.6519" y2="17.0848" gradientUnits="userSpaceOnUse"><stop class="w-color-1" stop-color="#00A55F"></stop><stop class="w-color-2" offset="1" stop-color="#4CF1AC"></stop></linearGradient></defs></svg>

<svg viewBox="0 0 123 34" fill="none" xmlns="http://www.w3.org/2000/svg" class="css-1g5lknp"><path class="w-animate css-fvm6oo" fill-rule="evenodd" clip-rule="evenodd" d="M123 9.88l-.735-2.334-6.814 2.382-.588-2.479h-2.5v19.1h3.235V12.99L123 9.88zM94.304 10.857c1.377-2.282 3.983-3.982 7.327-3.982 2.508 0 4.474.923 5.95 2.38 1.573 1.7 2.507 4.176 2.458 6.75l-.049 1.942H96.27c0 1.748.69 3.642 1.87 4.808.885.874 2.065 1.36 3.54 1.36 1.524 0 2.803-.438 3.59-1.263.54-.535.885-1.069 1.131-2.088h3.196c-.295 1.893-1.426 3.642-3 4.71-1.377.923-3.098 1.457-4.917 1.457-2.754 0-4.967-1.117-6.442-2.865-1.622-1.846-2.41-4.37-2.41-7.09 0-2.282.394-4.322 1.476-6.119zm7.326-1.263c-3.491 0-5.212 2.817-5.31 5.633h10.326c0-1.408-.394-2.865-1.18-3.885-.836-1.068-2.115-1.748-3.836-1.748zM74.966 10.857c1.377-2.283 3.983-3.982 7.327-3.982 2.508 0 4.475.922 5.95 2.379 1.573 1.7 2.508 4.176 2.458 6.75l-.049 1.942H76.933c0 1.748.688 3.642 1.869 4.808.885.874 2.065 1.36 3.54 1.36 1.524 0 2.803-.438 3.59-1.263.54-.534.885-1.068 1.13-2.088h3.197c-.295 1.894-1.426 3.642-3 4.71-1.377.923-3.098 1.457-4.917 1.457-2.754 0-4.966-1.117-6.442-2.865-1.622-1.845-2.409-4.37-2.409-7.09 0-2.282.393-4.322 1.475-6.119zm7.326-1.263c-3.491 0-5.213 2.817-5.31 5.633h10.326c0-1.408-.394-2.865-1.18-3.885-.837-1.068-2.115-1.748-3.836-1.748zM57.232 10.023c1.125-1.889 3.62-2.955 5.77-2.955 2.348 0 4.207.775 5.38 2.035 1.859 1.84 2.788 4.747 2.788 7.895 0 3.294-.978 6.297-2.934 8.138-1.272 1.162-3.032 1.937-5.282 1.937-2.054 0-4.548-.968-5.575-2.712V34H54.15V7.553h2.494l.587 2.47zm2.104 13.129c.783.678 1.712 1.26 3.13 1.26 4.304 0 5.429-3.827 5.429-7.315 0-3.487-1.125-7.314-5.429-7.314-1.418 0-2.347.581-3.13 1.26-1.614 1.356-2.151 3.68-2.151 6.054s.537 4.65 2.151 6.055zM36.09 10.857c1.377-2.283 3.983-3.982 7.327-3.982 2.508 0 4.475.922 5.95 2.379 1.574 1.7 2.508 4.176 2.459 6.75l-.05 1.942H38.057c0 1.748.689 3.642 1.869 4.808.885.874 2.065 1.36 3.54 1.36 1.525 0 2.803-.438 3.59-1.263.54-.534.885-1.068 1.13-2.088h3.197c-.295 1.894-1.426 3.642-3 4.71-1.376.923-3.097 1.457-4.917 1.457-2.753 0-4.966-1.117-6.441-2.865-1.623-1.845-2.41-4.37-2.41-7.09 0-2.282.394-4.322 1.475-6.119zm7.326-1.263c-3.49 0-5.212 2.817-5.31 5.633h10.326c0-1.408-.393-2.865-1.18-3.885-.836-1.068-2.115-1.748-3.836-1.748z" fill="#131418"/><path class="w-animate css-fvm6oo" d="M6.575 7.449h3.288v19.1H6.575V7.45zM6.576 0h3.674v3.63H6.576V0zM0 0h3.288v26.55H0V0z" fill="#131418"/><path fill-rule="evenodd" clip-rule="evenodd" d="M16.826 7.45h-3.674v3.628h3.674V7.45zm8.507 0H21.66v3.628h3.674V7.45zm0 15.662H21.66v3.63h3.674v-3.63zM29.978 7.45h3.674v3.63h-3.675v-3.63zm-4.061 7.832h3.674v3.629h-3.674v-3.63zm-4.837 0h-3.675v3.629h3.675v-3.63z" fill="url(#-logo-svg-paint0_linear)"/><defs><linearGradient id="-logo-svg-paint0_linear" x1="13.152" y1="17.085" x2="33.652" y2="17.085" gradientUnits="userSpaceOnUse"><stop class="w-color-1" stop-color="#00A55F"/><stop class="w-color-2" offset="1" stop-color="#4CF1AC"/></linearGradient></defs></svg>
